images/quote.svg

<?xml version="1.0"?>
<svg xmlns="http://www.w3.org/2000/svg" height="512px" viewBox="0 -42 426.66667 426" width="512px"><g><path d="m298.667969.332031h-21.335938c-11.796875 0-21.332031 9.558594-21.332031 21.335938 0 11.773437 9.535156 21.332031 21.332031 21.332031h21.335938c47.058593 0 85.332031 38.273438 85.332031 85.332031v43.757813c-3.457031-.707032-7.019531-1.089844-10.667969-1.089844h-64c-29.417969 0-53.332031 23.9375-53.332031 53.332031v64c0 29.398438 23.914062 53.335938 53.332031 53.335938h64c29.421875 0 53.335938-23.9375 53.335938-53.335938v-160c0-70.589843-57.410157-128-128-128zm0 0" data-original="#000000" class="active-path" data-old_color="#000000" fill="#D7D7FF"/><path d="m42.667969.332031h-21.335938c-11.796875 0-21.332031 9.558594-21.332031 21.335938 0 11.773437 9.535156 21.332031 21.332031 21.332031h21.335938c47.058593 0 85.332031 38.273438 85.332031 85.332031v43.757813c-3.457031-.707032-7.019531-1.089844-10.667969-1.089844h-64c-29.417969 0-53.332031 23.9375-53.332031 53.332031v64c0 29.398438 23.914062 53.335938 53.332031 53.335938h64c29.421875 0 53.335938-23.9375 53.335938-53.335938v-160c0-70.589843-57.410157-128-128-128zm0 0" data-original="#000000" class="active-path" data-old_color="#000000" fill="#D7D7FF"/></g> </svg>

<svg xmlns="http://www.w3.org/2000/svg" height="512" viewBox="0 -42 426.667 426" width="512"><path d="M298.668.332h-21.336C265.535.332 256 9.891 256 21.668 256 33.441 265.535 43 277.332 43h21.336C345.727 43 384 81.273 384 128.332v43.758a53.162 53.162 0 00-10.668-1.09h-64C279.914 171 256 194.938 256 224.332v64c0 29.398 23.914 53.336 53.332 53.336h64c29.422 0 53.336-23.938 53.336-53.336v-160c0-70.59-57.41-128-128-128zm-256 0H21.332C9.535.332 0 9.891 0 21.668 0 33.441 9.535 43 21.332 43h21.336C89.727 43 128 81.273 128 128.332v43.758a53.162 53.162 0 00-10.668-1.09h-64C23.914 171 0 194.938 0 224.332v64c0 29.398 23.914 53.336 53.332 53.336h64c29.422 0 53.336-23.938 53.336-53.336v-160c0-70.59-57.41-128-128-128zm0 0" data-original="#000000" class="active-path" data-old_color="#000000" fill="#D7D7FF"/></svg>
